!!!OTL: "Die hohe Blume" ES STAND EIN BAUM IM SCHWITZERLAND
!!!ARE: Europa, Mitteleuropa, Deutschland, Hessen
!!!SCT: Z1106
!!!YEM: Copyright 1995, estate of Helmut Schaffrath.
**kern
*ICvox
*Ivox
*M6/8
*k[b-e-a-d-]
*A-:
{8e-
=1
4a-
8b-
4cc
8ee-
=2
8cc
8b-
8cc
4a-}
{16cc
16dd-
=3
4ee-
8ff
4ee-
8gg
=4
8aa-
8ff
8gg
4aa-}
{16cc
16dd-
=5
4ee-
8dd-
8cc
8b-
8cc
=6
8a-
8g
8a-
4b-}
{16cc
16dd-
=7
4ee-
8dd-
8cc
8b-
8cc
=8
8e-
8f
8g
4a-}
==
!!!AGN: Romanze, Ballade
!!!ONB: ESAC (Essen Associative Code) Database: ZUCCAL
!!!AMT: compound duple
!!!AIN: vox
!!!EED: Helmut Schaffrath
!!!EEV: 1.0
*-
